X: 5
T: Lochanside
Z: JACKB
S: https://thesession.org/tunes/6479#setting30538
R: waltz
M: 3/4
L: 1/8
K: Gmaj
D2 |: G>A B2 Bd | cA B2 G2 | d>B G2 G>A | B>G B2 A2 |
A>G F2 Fd | cA G2 D2 | A>B c2 cE | FD G2 G2:|
G>B d2 d>c | B>c d2 B2 | GD E2 c>B | AG B2 A2 |
A>G F2 Fd | cA G2 D2 | A>B c2 cE | FD G2 G2 :|
F>E D2 DF | Ac B>A G2 | F>E D2 DF | d>c B2 AD |
G>B d2 Bd | c/>B/A/>G/ F2 E2 | A>B c2 cE | FD G2 G2 :|
